X:1
T:Title
%%score { 1 | 2 }
L:1/8
M:6/8
K:D
V:1 treble nm="Grand Piano"
V:2 bass 
V:1
 z3 z2[Q:1/4=96] D | F>FF [CE][DF][CE] | DF[GB] [FA]2 [DF] | [CA][CE][DF] [EG][FA][EG] | %4
 [A,DF]3- [A,DF]2 [DFA] | [DGB]>[DGB][DGB] [DBd][DAc][DGB] | [DFA][DGB][DFA] [A,DF]2 [DGB] | %7
 [DFA]3 [A,DF][K:bass][F,D][G,CE] |[M:5/8] [F,D]-[F,D]- [F,D]3 |[M:1/8][K:treble] [DFA] | %10
[M:3/4] [DFA]3 [A,DF] [A,EG][GB] | [FA]4- [FA][Fd] | d3 c de | d4- dA/A/ | B>B B [Bd]2 [Ac]/[GB]/ | %15
 [FA][GB] [FA] [A,DF]2 [DGB] | [DFA]3 [A,DF][K:bass] [F,D][G,CE] |[M:5/8] [F,D]-[F,D]- [F,D]3 |] %18
V:2
 z3 z2 [D,F,] | [D,A,D]>[D,A,D][D,A,D] [A,,G,][A,,A,][A,,G,] | [D,F,][D,A,D][D,D] [D,D]2 [D,A,] | %3
 [A,,A,][A,,A,][A,,A,] [A,,A,][A,,A,][A,,A,] | D,3- D,2 D, | G,>G,G, G,G,G, | D,D,D, D,2 G,, | %7
 A,,3 A,,A,,A,, |[M:5/8] D,-D,- D,3 |[M:1/8] D, |[M:3/4] D,3 D, D,[D,D] | [D,D]4- [D,D][D,A,] | %12
 [A,F]3 [A,E] [A,DF][A,CG] | [B,F]4- [B,F][K:bass][F,D]/[F,D]/ | %14
 [G,DG]>[G,DG] [G,DG] [G,D]2 [G,D]/[K:bass][G,D]/ | [D,D][D,D] [D,D] D,2 G,, | A,,3 A,, A,,A,, | %17
[M:5/8] D,-D,- D,3 |] %18

